!!!OTL: "Altes Minnelied" ICH FAHR DAHIN
!!!ARE: Europa, Mitteleuropa, Deutschland
!!!SCT: Z1144
!!!YEM: Copyright 1995, estate of Helmut Schaffrath.
**kern
*ICvox
*Ivox
*M6/4
*k[b-]
*F:
{4c
=1
2f
4f
2c
4b-
=2
2a
4g
2f}
{4f
=3
2e
4f
2g
4c
=4
2e
4d
2c}
{4c
=5
2f
4g
2a
4g
=6
2b-
4a
2g}
{4f
=7
2a
4b-
2cc
4dd
=8
4cc
4a
4f
2.g}
=9
{2.f
2e
4f
=10
2.b-
2.g}
=11
{2.a
2.g
=12
[2.f
2f]}
==
!!!AGN: Liebes - Lied
!!!ONB: ESAC (Essen Associative Code) Database: ZUCCAL
!!!AMT: compound duple
!!!AIN: vox
!!!EED: Helmut Schaffrath
!!!EEV: 1.0
*-
